X: 20
R:Reel
T:Flop-Eared Mule
M:2/4
L:1/16
K:D
A2|^e2f2 c2d2|ABAF D2F2|EDEF GECE|DEFG A4|
^e2f2 c2d2|ABAF D2F2|EDEF GABc|d2f2 d2:|
K:A
cd|efec efec|efec A2c2|BABc dBGE|ABcd e2cd|
efec efec|efec A2c2|BABc defg|[c2a2][c2a2] [c2a2]:|
